svg/furkot/icomoon/arrow-left.svg

<svg height="512" viewBox="0 0 512 512" width="512"><path d="m256 0c141.385 0 256 114.615 256 256s-114.615 256-256 256-256-114.615-256-256 114.615-256 256-256zm0 464c114.875 0 208-93.125 208-208s-93.125-208-208-208-208 93.125-208 208 93.125 208 208 208zm-150.628-230.627 128.001-128c12.496-12.497 32.757-12.497 45.254 0s12.497 32.758 0 45.255l-73.372 73.372h178.745c17.673 0 32 14.327 32 32s-14.327 32-32 32h-178.745l73.373 73.372c12.497 12.497 12.497 32.759 0 45.256-6.249 6.248-14.439 9.372-22.628 9.372s-16.379-3.124-22.627-9.372l-128.001-128c-12.496-12.497-12.496-32.759 0-45.255z"/></svg>

<svg width="512" height="512" viewBox="0 0 512 512" data-tags="arrow-left, left, previous" style="margin-left:8px;margin-top:8px"><path d="M 256.00,0.00C 397.385,0.00, 512.00,114.615, 512.00,256.00s -114.615,256.00, -256.00,256.00s -256.00-114.615, -256.00-256.00S 114.615,0.00, 256.00,0.00z M 256.00,464.00 c 114.875,0.00 208.00-93.125 208.00-208.00S 370.875,48.00, 256.00,48.00s -208.00,93.125, -208.00,208.00S 141.125,464.00, 256.00,464.00zM 105.372,233.373l 128.001-128.00c 12.496-12.497 32.757-12.497 45.254,0.00c 12.497,12.497 12.497,32.758,0.00,45.255L 205.255,224.00	L 384.00,224.00 c 17.673,0.00 32.00,14.327 32.00,32.00c0.00,17.673, -14.327,32.00, -32.00,32.00l-178.745,0.00 l 73.373,73.372c 12.497,12.497 12.497,32.759,0.00,45.256	C 272.379,412.876, 264.189,416.00, 256.00,416.00s -16.379-3.124, -22.627-9.372l -128.001-128.00C 92.876,266.131, 92.876,245.869, 105.372,233.373z"/></svg>
